src/assets/img/icons/dark/icon-different-rocket.svg

<svg width="42" height="42" viewBox="0 0 42 42" fill="none" xmlns="http://www.w3.org/2000/svg">
<path d="M25.6781 37.3769L7.93497 19.7978C6.39859 18.2512 6.43304 15.7255 8.04079 14.2531C8.70267 13.6469 9.43534 13.122 10.214 12.6719C7.56093 13.1602 4.89084 14.2608 2.87303 16.1089C1.26537 17.5814 1.23083 20.107 2.76722 21.6536L20.5103 39.2327C22.057 40.7691 24.5826 40.7345 26.055 39.1269C26.3337 38.8226 26.5946 38.5029 26.8398 38.1712C26.4189 37.9848 26.0239 37.7204 25.6781 37.3769Z" fill="#565656"/>
<path d="M23.0562 27.2053C21.6877 28.532 21.0064 29.1819 20.3303 29.7722C19.6477 30.368 19.5775 31.4044 20.1734 32.087C20.4978 32.4585 20.9526 32.6487 21.4099 32.6487C21.7927 32.6487 22.1772 32.5154 22.4882 32.2439C23.2199 31.6051 23.9282 30.9299 25.3401 29.5611C25.9907 28.9304 26.0068 27.8918 25.3761 27.2412C24.7454 26.5907 23.7068 26.5747 23.0562 27.2053Z" fill="white"/>
<path d="M12.432 16.9128C11.8945 17.4738 11.4719 17.8986 11.0991 18.2733C10.604 18.771 10.2129 19.1642 9.83778 19.5938C9.24192 20.2764 9.31222 21.3128 9.99478 21.9087C10.3058 22.1802 10.6902 22.3134 11.073 22.3134C11.5303 22.3134 11.9853 22.1232 12.3096 21.7517C12.6143 21.4025 12.9545 21.0606 13.4253 20.5874C13.7893 20.2215 14.2423 19.7661 14.8011 19.1829C15.428 18.5286 15.4057 17.4901 14.7515 16.8633C14.0974 16.2363 13.0588 16.2586 12.432 16.9128Z" fill="white"/>
<path d="M40.4976 1.48937C39.1801 0.175203 37.3253 -0.307859 35.5356 0.197433C32.1145 1.16339 26.5924 3.58436 19.7124 9.63195C18.6103 10.6007 17.1323 11.0496 15.6568 10.8636C13.4122 10.5806 10.8938 10.7559 8.5653 11.3572C5.89333 12.0473 3.54167 13.2723 1.76462 14.8999C0.662817 15.9091 0.0365346 17.2911 0.00109854 18.7914C-0.0341735 20.2854 0.549701 21.7503 1.60294 22.8106C1.60597 22.8137 1.60909 22.8168 1.61221 22.8198L19.3538 40.3974C20.3838 41.4206 21.7956 42.0008 23.245 42.0008C23.2877 42.0008 23.3303 42.0003 23.373 41.9992C24.8734 41.9638 26.2554 41.3376 27.2645 40.2357C28.8979 38.4524 30.1253 36.0914 30.8141 33.4081C31.4145 31.0694 31.5851 28.5434 31.2947 26.2954C31.1044 24.8232 31.5491 23.344 32.5146 22.2373C38.452 15.4314 40.8443 9.90477 41.8057 6.46691C42.3086 4.66877 41.8196 2.80805 40.4976 1.48937ZM38.6459 5.5833C37.7757 8.69527 35.5766 13.7365 30.0422 20.0803C28.4597 21.8943 27.7302 24.3129 28.0407 26.716C28.4811 30.1248 27.6638 34.942 24.8449 38.0197C24.4448 38.4566 23.8946 38.705 23.2956 38.7191C22.6821 38.7331 22.1024 38.503 21.6647 38.0681L3.92663 20.4942C3.49598 20.0584 3.26688 19.4815 3.28131 18.8689C3.29542 18.2699 3.5438 17.7197 3.98068 17.3196C7.04426 14.5137 11.8461 13.6904 15.2462 14.119C17.6537 14.4226 20.0709 13.6852 21.8785 12.0964C28.2968 6.45476 33.3327 4.22894 36.4271 3.35518C37.338 3.09794 37.9566 3.58928 38.1804 3.8124C38.6508 4.2816 38.8248 4.94357 38.6459 5.5833Z" fill="white"/>
<path d="M23.788 20.5086C24.9206 20.5086 25.8387 19.5905 25.8387 18.4579C25.8387 17.3254 24.9206 16.4072 23.788 16.4072C22.6554 16.4072 21.7373 17.3254 21.7373 18.4579C21.7373 19.5905 22.6554 20.5086 23.788 20.5086Z" fill="white"/>
<path d="M26.823 13.3737C26.8239 12.2411 27.7427 11.3222 28.8753 11.3214C30.0078 11.3205 30.9252 12.238 30.9244 13.3706C30.9235 14.5031 30.0047 15.422 28.8722 15.4228C27.7396 15.4237 26.8222 14.5062 26.823 13.3737ZM5.50685 41.773C7.56296 41.0732 10.4649 39.3872 10.5875 39.3157C11.3702 38.8594 11.6347 37.8552 11.1786 37.0724C10.7224 36.2897 9.71816 36.0249 8.93521 36.481C8.90797 36.4968 6.19342 38.0734 4.44976 38.6668C3.97194 38.8295 3.64826 38.5671 3.53129 38.4468C3.4167 38.3288 3.16864 38.0047 3.34074 37.5426L3.38315 37.4288C4.00927 35.7469 4.02124 35.7147 5.58059 33.1803C6.05537 32.4086 5.8147 31.3981 5.04298 30.9233C4.27126 30.4485 3.26084 30.6892 2.78598 31.4609C1.09842 34.2038 1.0054 34.411 0.308167 36.2841L0.265923 36.3975C-0.298347 37.9125 0.0512561 39.574 1.17832 40.7337C1.98072 41.5593 3.04774 41.9998 4.14896 41.9997C4.60118 41.9996 5.05914 41.9254 5.50685 41.773Z" fill="#D34214"/>
</svg>

<svg xmlns="http://www.w3.org/2000/svg" width="42" height="42" fill="none"><path fill="#565656" d="M25.68 37.38L7.93 19.8a3.85 3.85 0 01.11-5.55c.66-.6 1.4-1.13 2.17-1.58a14.87 14.87 0 00-7.34 3.44 3.85 3.85 0 00-.1 5.54L20.5 39.23a3.85 3.85 0 005.54-.1c.28-.3.54-.63.79-.96a3.87 3.87 0 01-1.16-.8z"/><path fill="#fff" d="M23.06 27.2a72.97 72.97 0 01-2.73 2.57 1.64 1.64 0 102.16 2.47c.73-.63 1.44-1.31 2.85-2.68a1.64 1.64 0 10-2.28-2.35zM12.43 16.91c-.54.56-.96.99-1.33 1.36-.5.5-.89.9-1.26 1.32a1.64 1.64 0 002.47 2.16c.3-.35.64-.69 1.12-1.16.36-.37.81-.82 1.37-1.4a1.64 1.64 0 00-2.37-2.28z"/><path fill="#fff" d="M40.5 1.49a5.01 5.01 0 00-4.96-1.3c-3.43.97-8.95 3.4-15.83 9.44a5.16 5.16 0 01-4.05 1.23c-2.25-.28-4.77-.1-7.1.5a15.96 15.96 0 00-6.8 3.54A5.4 5.4 0 000 18.8a5.55 5.55 0 001.61 4.02L19.35 40.4a5.55 5.55 0 004.02 1.6 5.4 5.4 0 003.9-1.76 15.97 15.97 0 003.54-6.83c.6-2.34.78-4.87.48-7.11a5.17 5.17 0 011.22-4.06c5.94-6.8 8.33-12.34 9.3-15.77.5-1.8.01-3.66-1.31-4.98zm-1.85 4.1c-.87 3.1-3.07 8.15-8.6 14.49a8.45 8.45 0 00-2 6.64c.43 3.4-.39 8.22-3.2 11.3a2.22 2.22 0 01-3.18.05L3.92 20.49a2.22 2.22 0 01.05-3.17c3.06-2.8 7.87-3.63 11.27-3.2 2.4.3 4.82-.43 6.63-2.02 6.42-5.65 11.45-7.87 14.55-8.74.9-.26 1.53.23 1.75.45.47.47.64 1.13.47 1.77z"/><path fill="#fff" d="M23.79 20.5a2.05 2.05 0 100-4.1 2.05 2.05 0 000 4.1z"/><path fill="#D34214" d="M26.82 13.37a2.05 2.05 0 014.1 0 2.05 2.05 0 01-4.1 0zM5.51 41.77c2.05-.7 4.95-2.38 5.08-2.45a1.64 1.64 0 00-1.65-2.84c-.03.02-2.75 1.6-4.49 2.19a.86.86 0 01-.92-.22.84.84 0 01-.19-.9l.04-.12c.63-1.68.64-1.72 2.2-4.25a1.64 1.64 0 00-2.8-1.72C1.1 34.2 1.02 34.41.32 36.28l-.04.12a4.11 4.11 0 00.9 4.33 4.13 4.13 0 004.34 1.04z"/></svg>
